X:1
T: Beth Cohen's, Low Octave
C:Larry Unger
M: C|
L: 1/8
R: reel
K:Amin %Transposed from EMIN
"A"A,_B,^CD EFED|EGFE "Bb"FED^C|"A"A,_B,^CD EFED|EFED "Bb"E2 EE|
"A"A,_B,^CD EFED|EGFE "Bb"FED^C|"A"D^C_B,D "Bb"CB,A,G,| "A"A,2 G,2 A,2 z2 :|
[|:"A"A,2 EA, "Bb" _B,2 ED|"A"^CD E2 -EGFE|A,2 EA, "Bb"_B,2 ED|"Gm"^C_B, G,2-G,DCB,|
"A"A,2 EA, "Bb" _B,2 ED|"A"^CDEG A3_B|A_BAG "Gm"FED^C|1"A"^C6 z2:|\
	[2 "A"A6 z2||
